X:1
T:Ce qui souloit
T:Ce qui souloit
T:Pierre Sandrin
C:Pierre Sandrin
%%score [ 1 [ 2 3 ] 4 ]
L:1/8
Q:1/4=84
M:2/2
K:C
V:1 treble nm="Superius" snm="S"
V:2 treble-8 nm="Tenor 1" snm="T 1"
V:3 treble-8 nm="Tenor 2" snm="T 2"
V:4 bass nm="Bass" snm="B"
V:1
 D4 F3 G | A6 GF | E4 A4 | A2 A2 c3 B/A/ | GA B3 A A2- | A2 G2 A2 E2 | F2 F2 E4 | F4 GEFG | %8
w: Ce qui sou-|loit _ _|_ se|de- par- tir, _ _|_ _ _ _ _|* * * en|foy, a- mour,|plai- sir, _ _ _|
w: Las, main te-|nant _ _|_ c'est|vou- lu con- * *||* ver- tir en|trop pi- teulx|et soub- * * *|
 A3 G F2 E2- |"^#" E2 D4 C2 | D4 z4 :: E4 E2 G2 | F2 D2 E2 F2- | FEDC D2 D2 | C8 | E4 G2 F2 | %16
w: _ _ _ con-|* ten- te-|ment,|Je por- te-|ray mon mal- heur|_ _ _ _ doul- ce-|ment,|pour à l'in-|
w: * * * dain|_ chan- ge-|ment.||||||
 G4 F4 | F3 G A2 G2- | G2 F4 E2 | F4 z2 F2 | F2 E2 D2 D2 | F2 E2 D2 D2 | C4 C2 FG |: %23
w: grat trop|de plai- sir ne|_ ren- *|dre, ain-|si se- ra en|moy le seul tour-|ment, en lieu _|
w: |||||||
[M:2/4] AB c2- |[M:2/2]"^#" cB A4 G2 | A2 E2 E2 E2 | F2 DE FG A2- | A2 G2 A3 G | FE D2 G3 F | %29
w: _ _ _|* * * du|bien que deux sou-|loit pre- * * * ten|_ _ _ _||
w: ||||||
 ED D4 C2 |1 D2 D2 DEFG :|2 D8- || D8- | D8- | D8 |] %35
w: |dre, en lieu _ _ _|dre.|_|||
w: ||||||
V:2
 z4 D4 | F3 G A4 | z2 A3 GFE | F4 G2 c2- | c2 B2 c2 d2 | e4 c2 c2 | d2 d2 c4 | d4 ec de | f4 c4 | %9
w: Et|qui sou- loit|en _ _ _|deux se de-||par- tir en|foy, a- mour,|plai- sir, _ _ _|_ con|
w: Las,|main- te- nant|c'est _ _ _|vou- lu con-||ver- tir en|trop pi- teulx|et soub _ _ _|_ dain|
"^b" A2 B2 A4 | F4 z4 :: c4 c2 B2 | d2 A2 c2 B2- | B2 A4 G2 | A4 G4 | c4 d4 | B4 A2 A2 | %17
w: ten- * te-|ment.,|Je por- te-|ray mon mal- heur|_ doul- ce-|ment, pour-|à l'in-|grat trop de|
w: chan- * ge-|ment.|||||||
 d2 d2 e2 c2- |"^b" c2 B2 c4 | A2 c2 d2 c2 | c4 A4 | d2 c2 _B3 A | G4 A2 d2 |:[M:2/4] c3 d | %24
w: pla- sir ne re-||dre, ain- si se-|ra en|moy le seul _|tour- ment, en|lieu _|
w: |||||||
[M:2/2] e4 e4 | c2 c2 c2 c2 | d3 c A2 A2 | e3 d cB A2 | d3 c BA GA | B4 A4 |1 F4 z2 d2 :|2 %31
w: _ du|bien que deux sou-|loit _ _ pre-|ten- * * * *|||dre, en|
w: |||||||
 F4 z2 G2 || G2 G2 A2 A2 |"^b" B4 A4- | A8 |] %35
w: dre, que|deux sou- loit pre-|ten- dre.|_|
w: ||||
V:3
 z4 d4- | d4 c4 | c4 d4 | d4 e4- | e2 d2 c2 BA | B2 B2 A4 | z2 A2 A4 | A2 GF c4- | %8
w: Et|_ qui|sou- loit|en deux|_ se de- * *|* par- tir|en foy,|a- * * mour,|
w: Las,|_ main-|te- nant|c'est vou-|* lu con- * *|* ver- tir|rn trop|pi- * * teuls|
"^b" c2 B2 A2 G2 | F2 G2 E4 | D4 z4 :: G4 G2 G2 | A2 F2 G2 F2 | D4 D4 | E8 | G4 B2 A2 | %16
w: _ plai- sir, con-|ten- * te-|ment,|Je por- te-|ray mon mal- heur|doul- ce-|ment,|pour à l'in-|
w: _ et soub- dain|chan- * ge-|ment.||||||
 G2 d2 d2 d2 |"^b" A4 c3 B | A2 GF G4 | F2 A2 A2 A2 | G4 F4 | FG AF G2 F2- | F2 E2 F4 |: %23
w: grat trop de plai-|sir ne _|_ _ _ ren-|dre, ain- si se-|ra en|moy _ le _ seul- *|* tour- ment,|
w: |||||||
[M:2/4] z2 A2 |[M:2/2] c4 B4 | A4 z2 A2 | A2 A2 d3 c | B4 A2 d2- | dc BA GA BA | G3 F ED E2 |1 %30
w: en|lieu du|bien que|_ sou- loit pre-|ten- * *|||
w: |||||||
 D8 :|2 D8 || z2 G4 F2 | G6 FE | F8 |] %35
w: dre,|dre,|pre- *|ten- * *|dree.|
w: |||||
V:4
 z8 | D,4 F,3 G, | A,4 D,4 | D,2 D,2 C,3 D, | E,F, G,2 A,2 F,2 | E,4 A,,2 A,,2 | D,2 D,2 A,,4 | %7
w: |Et qui sou-|loit en|deux se de- *||par- tir, en|foy, a- mour,|
w: |Las, main- te-|nant c'est|vou- lu con- *||ver- tir en|trop pi- teulx|
 D,4 C,4 | F,6 C,2 | D,2 G,,2 A,,4 | D,8 :: C,4 C,2 E,2 | D,2 D,2 C,2 D,2- | %13
w: plai- sir,|con- *|ten- * te-|ment,|Je por- te-|ray mon mal- heur|
w: et soub-|* dain|chan- * ge-|ment.|||
 D,C, B,,A,, B,,2 B,,2 | A,,4 C,4- | C,4 G,,2 D,2 | G,,4 D,4 | D,2 D,2 A,,2 C,2 | D,4 C,4 | %19
w: _ _ _ _ doul- ce-|ment, pour|_ à l'in-|grat trop|de plai- sir ne|ren- dre,|
w: ||||||
 z2 F,2 D,2 F,2 | C,4 D,4 | D,2 A,,2 _B,,4 | C,4 F,,2 D,2 |:[M:2/4] F,4 |[M:2/2] C,3 D, E,4 | %25
w: ain- si se-|ra en|moy le seul|tour- ment, en|lieu|du _ _|
w: ||||||
 A,,8 | D,4 D,2 D,2 | E,2 E,2 F,4 | D,4 z2 G,,2 | G,,2 G,,2 A,,2 A,,2 |1"^b" B,,4 G,,2 D,2 :|2 %31
w: bien|que deux sou-|loit pre- ten-|dre, que|deux sou- loit pre-|ten- dre en|
w: ||||||
"^b" B,,4 G,,4- || G,,4 D,4 |"^b" G,,A,, B,,C, D,4- | D,8 |] %35
w: ten- dre,|_ pre-|ten- * * * dre.|_|
w: ||||

